src/images/tips/tip3.svg

<svg id="bd4103a6-87b0-4a08-8ab5-5811762a7009" data-name="Layer 1" xmlns="http://www.w3.org/2000/svg" width="1124" height="776" viewBox="0 0 1124 776"><title>light_the_fire</title><ellipse cx="562" cy="739" rx="562" ry="37" fill="#3f3d56"/><ellipse cx="534" cy="216" rx="58" ry="53" fill="#ef6584"/><path d="M674.5,763.5s-123.5,49.5-211,1l.81-14,7.54-130,7.13-123,8.52-147h164l7.88,147,6.6,123,6.97,130Z" transform="translate(-38 -62)" fill="#3f3d56"/><path d="M463.5,350.5" transform="translate(-38 -62)" fill="none" stroke="#2f2e41" stroke-miterlimit="10"/><path d="M674.5,763.5s-113.5,50.5-211,1l.81-14H672.95Z" transform="translate(-38 -62)" fill="#ef6584"/><polygon points="627.98 558.5 433.85 558.5 440.98 435.5 621.38 435.5 627.98 558.5" fill="#ef6584"/><rect x="439.5" y="272.5" width="184" height="20" fill="#3f3d56"/><rect x="439.5" y="205.5" width="184" height="20" fill="#3f3d56"/><rect x="455.5" y="225.5" width="11" height="52" fill="#3f3d56"/><rect x="484.5" y="225.5" width="11" height="52" fill="#3f3d56"/><rect x="513.5" y="225.5" width="11" height="52" fill="#3f3d56"/><rect x="542.5" y="225.5" width="11" height="52" fill="#3f3d56"/><rect x="571.5" y="225.5" width="11" height="52" fill="#3f3d56"/><rect x="484.5" y="146" width="11" height="68.5" fill="#3f3d56"/><rect x="513.5" y="146" width="11" height="68.5" fill="#3f3d56"/><rect x="542.5" y="146" width="11" height="68.5" fill="#3f3d56"/><rect x="571.5" y="146" width="11" height="68.5" fill="#3f3d56"/><rect x="600.5" y="225.5" width="11" height="52" fill="#3f3d56"/><rect x="456" y="154" width="11" height="61" fill="#3f3d56"/><rect x="601" y="154" width="11" height="61" fill="#3f3d56"/><polygon points="624 165.5 440 165.5 440 105.5 532 31 624 105.5 624 165.5" fill="#3f3d56"/><circle cx="534" cy="215" r="154.69512" fill="#ef6584" opacity="0.3"/><circle cx="534" cy="215" r="215" fill="#ef6584" opacity="0.3"/><path d="M89.40863,754.73447c6.07317,22.45005,26.87512,36.35394,26.87512,36.35394s10.95541-22.49485,4.88225-44.94491-26.87512-36.35394-26.87512-36.35394S83.33547,732.28441,89.40863,754.73447Z" transform="translate(-38 -62)" fill="#8985a8"/><path d="M98.33272,749.90971c16.66484,16.22255,18.70033,41.1604,18.70033,41.1604S92.04949,789.706,75.38464,773.48344,56.68431,732.323,56.68431,732.323,81.66787,733.68715,98.33272,749.90971Z" transform="translate(-38 -62)" fill="#3f3d56"/><path d="M354.75735,722.4082c-8.95314,33.09618-39.61966,53.59348-39.61966,53.59348s-16.15062-33.16222-7.19748-66.2584,39.61966-53.59348,39.61966-53.59348S363.71049,689.312,354.75735,722.4082Z" transform="translate(-38 -62)" fill="#8985a8"/><path d="M273.30876,722.4082c8.95314,33.09618,39.61966,53.59348,39.61966,53.59348s16.15062-33.16222,7.19748-66.2584-39.61967-53.59348-39.61967-53.59348S264.35562,689.312,273.30876,722.4082Z" transform="translate(-38 -62)" fill="#8985a8"/><path d="M286.46476,715.29547c24.56755,23.91552,27.56829,60.67923,27.56829,60.67923s-36.83111-2.011-61.39865-25.92651S225.06611,689.369,225.06611,689.369,261.89722,691.38,286.46476,715.29547Z" transform="translate(-38 -62)" fill="#3f3d56"/><path d="M341.60134,715.29547C317.0338,739.211,314.03305,775.9747,314.03305,775.9747s36.83112-2.011,61.39866-25.92651S403,689.369,403,689.369,366.16889,691.38,341.60134,715.29547Z" transform="translate(-38 -62)" fill="#3f3d56"/><path d="M946.958,427.97294c-7.88435-13.32212-23.48292-13.943-23.48292-13.943s-15.19991-1.94375-24.95056,18.346c-9.08838,18.91172-21.63151,37.17136-2.01934,41.59846l3.54253-11.02593,2.19386,11.8468a76.7367,76.7367,0,0,0,8.39132.14341c21.00305-.6781,41.00527.19839,40.36123-7.33838C950.138,457.58123,954.54432,440.79148,946.958,427.97294Z" transform="translate(-38 -62)" fill="#2f2e41"/><circle cx="887.04595" cy="383.50128" r="20.35767" fill="#a0616a"/><path d="M916.71782,458.76461s9.25348,21.59146-3.0845,25.90976l12.338,40.71533,20.97457-1.2338,5.55209-13.57178-1.2338-20.35766-1.8507-13.57178s-12.95488,3.0845-11.72108-19.74077Z" transform="translate(-38 -62)" fill="#a0616a"/><path d="M911.78262,484.05747s-20.35766-1.8507-18.507,12.95488,3.7014,17.89007,3.7014,17.89007l1.8507,22.20836-11.10419,6.78589H877.23628s-32.07875,7.40279-16.03937,15.42248,21.59146-6.169,21.59146-6.169,29.61115,0,31.46185-4.9352S911.78262,484.05747,911.78262,484.05747Z" transform="translate(-38 -62)" fill="#a0616a"/><path d="M951.26416,477.88848s19.12387-6.78589,20.35767,8.01969,1.23379,16.03937,1.23379,16.03937l3.7014,20.97456s7.40279,18.507,7.40279,24.05907,5.55209,22.82526,5.55209,22.82526,7.40279,24.05906-.6169,23.44216-9.25349-25.90976-9.25349-25.90976l-16.65627-33.31254-4.93519-20.35767Z" transform="translate(-38 -62)" fill="#a0616a"/><path d="M914.86712,481.58987h-4.93519l-.6169,25.90976s-8.01969,11.10418,1.8507,20.97457l2.46759,16.03937,45.03363-1.8507,3.08449-16.65627s6.169-13.57178-2.46759-25.90976L951.26416,474.804h-4.31829s10.00158,36.87706-11.10419,37.63084C918.56851,513.05172,914.86712,481.58987,914.86712,481.58987Z" transform="translate(-38 -62)" fill="#d0cde1"/><path d="M916.10092,541.42907l-3.7014,12.338S835.28715,770.9155,858.72931,776.46759s56.13781,12.95488,59.2223,7.40279,19.12387-167.79653,19.12387-167.79653-2.46759,169.64723,5.55209,169.64723,61.073,1.23379,64.1575-6.78589-27.76046-222.70054-45.65053-227.63573l-4.93519-11.10418Z" transform="translate(-38 -62)" fill="#2f2e41"/><path d="M960.51764,535.26008l-48.735,1.8507s-2.22426,16.65627,0,16.65627c.6169,0,51.20262,4.3183,50.58572-3.08449S960.51764,535.26008,960.51764,535.26008Z" transform="translate(-38 -62)" fill="#3f3d56"/><circle cx="887.38417" cy="352.09743" r="11.27862" fill="#2f2e41"/><path d="M912.91833,411.12937a11.27906,11.27906,0,0,1,10.0914-11.21521,11.27862,11.27862,0,1,0,0,22.43042A11.279,11.279,0,0,1,912.91833,411.12937Z" transform="translate(-38 -62)" fill="#2f2e41"/><polygon points="905.472 364.689 890.062 356.616 868.78 359.919 864.377 379.366 875.338 378.944 878.4 371.799 878.4 378.826 883.457 378.632 886.392 367.257 888.227 379.366 906.206 378.999 905.472 364.689" fill="#2f2e41"/><rect x="863.75688" y="494.97263" width="5.86921" height="88.03821" transform="translate(-156.96056 212.12145) rotate(-16.83579)" fill="#3f3d56"/><path d="M873.43778,477.54775A24.01042,24.01042,0,0,1,827.47517,491.456c-3.84066-12.69223,8.69714-54.159,8.69714-54.159S869.59712,464.85553,873.43778,477.54775Z" transform="translate(-38 -62)" fill="#ef6584"/><path d="M866.43519,484.75374a16.34564,16.34564,0,1,1-31.2901,9.46837c-2.61461-8.64052,5.92078-36.87,5.92078-36.87S863.82058,476.11322,866.43519,484.75374Z" transform="translate(-38 -62)" opacity="0.1"/></svg>

<svg id="eBEUeSiLnIK1" xmlns="http://www.w3.org/2000/svg" xmlns:xlink="http://www.w3.org/1999/xlink" viewBox="0 0 1124 776" shape-rendering="geometricPrecision" text-rendering="geometricPrecision"><style><![CDATA[#eBEUeSiLnIK23_ts {animation: eBEUeSiLnIK23_ts__ts 6000ms linear infinite normal forwards}@keyframes eBEUeSiLnIK23_ts__ts { 0% {transform: translate(533.999985px,215px) scale(1,1)} 27.777778% {transform: translate(533.999985px,215px) scale(5,5)} 55.555556% {transform: translate(533.999985px,215px) scale(1,1)} 83.333333% {transform: translate(533.999985px,215px) scale(5,5)} 88.888889% {transform: translate(533.999985px,215px) scale(2.333333,2.333333)} 91.666667% {transform: translate(533.999985px,215px) scale(1.666667,1.666667)} 94.444444% {transform: translate(533.999985px,215px) scale(1,1)} 97.222222% {transform: translate(533.999985px,215px) scale(1,1)} 100% {transform: translate(533.999985px,215px) scale(1,1)}} #eBEUeSiLnIK23 {animation: eBEUeSiLnIK23_c_o 6000ms linear infinite normal forwards}@keyframes eBEUeSiLnIK23_c_o { 0% {opacity: 1} 25% {opacity: 0} 27.777778% {opacity: 0} 55.555556% {opacity: 0} 58.333333% {opacity: 1} 80.555556% {opacity: 1} 83.333333% {opacity: 0} 88.888889% {opacity: 0} 91.666667% {opacity: 0} 94.444444% {opacity: 0} 97.222222% {opacity: 1} 100% {opacity: 1}} #eBEUeSiLnIK25_ts {animation: eBEUeSiLnIK25_ts__ts 6000ms linear infinite normal forwards}@keyframes eBEUeSiLnIK25_ts__ts { 0% {transform: translate(534px,215px) scale(1,1)} 2.777778% {transform: translate(534px,215px) scale(1,1)} 30.555556% {transform: translate(534px,215px) scale(3.5,3.5)} 66.666667% {transform: translate(534px,215px) scale(1,1)} 88.888889% {transform: translate(534px,215px) scale(3.5,3.5)} 94.444444% {transform: translate(534px,215px) scale(1,1)} 100% {transform: translate(534px,215px) scale(1,1)}} #eBEUeSiLnIK25 {animation: eBEUeSiLnIK25_c_o 6000ms linear infinite normal forwards}@keyframes eBEUeSiLnIK25_c_o { 0% {opacity: 1} 2.777778% {opacity: 1} 27.777778% {opacity: 1} 30.555556% {opacity: 0} 66.666667% {opacity: 0} 69.444444% {opacity: 1} 88.888889% {opacity: 0} 91.666667% {opacity: 0} 94.444444% {opacity: 0} 97.222222% {opacity: 1} 100% {opacity: 1}}]]></style><ellipse id="eBEUeSiLnIK2" rx="562" ry="37" transform="matrix(1 0 0 1 562 739)" fill="rgb(63,61,86)" stroke="none" stroke-width="1"/><ellipse id="eBEUeSiLnIK3" rx="58" ry="53" transform="matrix(1 0 0 1 534 216)" fill="rgb(61,158,103)" stroke="none" stroke-width="1"/><path id="eBEUeSiLnIK4" d="M674.5,763.5C674.5,763.5,551,813,463.5,764.5L464.31,750.5L471.85,620.5L478.98,497.5L487.5,350.5L651.5,350.5L659.38,497.5L665.98,620.5L672.95,750.5Z" transform="matrix(1 0 0 1 -38 -62)" fill="rgb(63,61,86)" stroke="none" stroke-width="1"/><path id="eBEUeSiLnIK5" d="" transform="matrix(1 0 0 1 -38 -62)" fill="none" stroke="rgb(47,46,65)" stroke-width="1" stroke-miterlimit="10"/><path id="eBEUeSiLnIK6" d="M674.5,763.5C674.5,763.5,561,814,463.5,764.5L464.31,750.5L672.95,750.5Z" transform="matrix(1 0 0 1 -38 -62)" fill="rgb(61,158,103)" stroke="none" stroke-width="1"/><polygon id="eBEUeSiLnIK7" points="627.98,558.5 433.85,558.5 440.98,435.5 621.38,435.5 627.98,558.5" fill="rgb(61,158,103)" stroke="none" stroke-width="1"/><rect id="eBEUeSiLnIK8" width="184" height="20" rx="0" ry="0" transform="matrix(1 0 0 1 439.5 272.5)" fill="rgb(63,61,86)" stroke="none" stroke-width="1"/><rect id="eBEUeSiLnIK9" width="184" height="20" rx="0" ry="0" transform="matrix(1 0 0 1 439.5 205.5)" fill="rgb(63,61,86)" stroke="none" stroke-width="1"/><rect id="eBEUeSiLnIK10" width="11" height="52" rx="0" ry="0" transform="matrix(1 0 0 1 455.5 225.5)" fill="rgb(63,61,86)" stroke="none" stroke-width="1"/><rect id="eBEUeSiLnIK11" width="11" height="52" rx="0" ry="0" transform="matrix(1 0 0 1 484.5 225.5)" fill="rgb(63,61,86)" stroke="none" stroke-width="1"/><rect id="eBEUeSiLnIK12" width="11" height="52" rx="0" ry="0" transform="matrix(1 0 0 1 513.5 225.5)" fill="rgb(63,61,86)" stroke="none" stroke-width="1"/><rect id="eBEUeSiLnIK13" width="11" height="52" rx="0" ry="0" transform="matrix(1 0 0 1 542.5 225.5)" fill="rgb(63,61,86)" stroke="none" stroke-width="1"/><rect id="eBEUeSiLnIK14" width="11" height="52" rx="0" ry="0" transform="matrix(1 0 0 1 571.5 225.5)" fill="rgb(63,61,86)" stroke="none" stroke-width="1"/><rect id="eBEUeSiLnIK15" width="11" height="68.5" rx="0" ry="0" transform="matrix(1 0 0 1 484.5 146)" fill="rgb(63,61,86)" stroke="none" stroke-width="1"/><rect id="eBEUeSiLnIK16" width="11" height="68.5" rx="0" ry="0" transform="matrix(1 0 0 1 513.5 146)" fill="rgb(63,61,86)" stroke="none" stroke-width="1"/><rect id="eBEUeSiLnIK17" width="11" height="68.5" rx="0" ry="0" transform="matrix(1 0 0 1 542.5 146)" fill="rgb(63,61,86)" stroke="none" stroke-width="1"/><rect id="eBEUeSiLnIK18" width="11" height="68.5" rx="0" ry="0" transform="matrix(1 0 0 1 571.5 146)" fill="rgb(63,61,86)" stroke="none" stroke-width="1"/><rect id="eBEUeSiLnIK19" width="11" height="52" rx="0" ry="0" transform="matrix(1 0 0 1 600.5 225.5)" fill="rgb(63,61,86)" stroke="none" stroke-width="1"/><rect id="eBEUeSiLnIK20" width="11" height="61" rx="0" ry="0" transform="matrix(1 0 0 1 456 154)" fill="rgb(63,61,86)" stroke="none" stroke-width="1"/><rect id="eBEUeSiLnIK21" width="11" height="61" rx="0" ry="0" transform="matrix(1 0 0 1 601 154)" fill="rgb(63,61,86)" stroke="none" stroke-width="1"/><polygon id="eBEUeSiLnIK22" points="624,165.5 440,165.5 440,105.5 532,31 624,105.5 624,165.5" fill="rgb(63,61,86)" stroke="none" stroke-width="1"/><g id="eBEUeSiLnIK23_ts" transform="translate(533.999985,215) scale(1,1)"><g id="eBEUeSiLnIK23" transform="translate(-533.999985,-215)"><circle id="eBEUeSiLnIK24" r="154.695" transform="matrix(1 0 0 1 534 215)" opacity="0.3" fill="rgb(61,158,103)" stroke="none" stroke-width="1"/></g></g><g id="eBEUeSiLnIK25_ts" transform="translate(534,215) scale(1,1)"><g id="eBEUeSiLnIK25" transform="translate(-534,-215)"><circle id="eBEUeSiLnIK26" r="215" transform="matrix(1 0 0 1 534 215)" opacity="0.3" fill="rgb(0,191,166)" stroke="none" stroke-width="1"/></g></g><path id="eBEUeSiLnIK27" d="M89.40863,754.73447C95.4818,777.18452,116.28375,791.08841,116.28375,791.08841C116.28375,791.08841,127.23916,768.59356,121.166,746.1435C115.09284,723.69344,94.29088,709.78956,94.29088,709.78956C94.29088,709.78956,83.33547,732.28441,89.40863,754.73447Z" transform="matrix(1 0 0 1 -38 -62)" fill="rgb(137,133,168)" stroke="none" stroke-width="1"/><path id="eBEUeSiLnIK28" d="M98.33272,749.90971C114.99756,766.13226,117.03305,791.07011,117.03305,791.07011C117.03305,791.07011,92.04949,789.706,75.38464,773.48344C58.71979,757.26088,56.68431,732.323,56.68431,732.323C56.68431,732.323,81.66787,733.68715,98.33272,749.90971Z" transform="matrix(1 0 0 1 -38 -62)" fill="rgb(63,61,86)" stroke="none" stroke-width="1"/><path id="eBEUeSiLnIK29" d="M354.75735,722.4082C345.80421,755.50438,315.13769,776.00168,315.13769,776.00168C315.13769,776.00168,298.98707,742.83946,307.94021,709.74328C316.89335,676.6471,347.55987,656.1498,347.55987,656.1498C347.55987,656.1498,363.71049,689.312,354.75735,722.4082Z" transform="matrix(1 0 0 1 -38 -62)" fill="rgb(137,133,168)" stroke="none" stroke-width="1"/><path id="eBEUeSiLnIK30" d="M273.30876,722.4082C282.2619,755.50438,312.92842,776.00168,312.92842,776.00168C312.92842,776.00168,329.07904,742.83946,320.1259,709.74328C311.17276,676.6471,280.50623,656.1498,280.50623,656.1498C280.50623,656.1498,264.35562,689.312,273.30876,722.4082Z" transform="matrix(1 0 0 1 -38 -62)" fill="rgb(137,133,168)" stroke="none" stroke-width="1"/><path id="eBEUeSiLnIK31" d="M286.46476,715.29547C311.03231,739.21099,314.03305,775.9747,314.03305,775.9747C314.03305,775.9747,277.20194,773.9637,252.6344,750.04819C228.06686,726.13268,225.06611,689.369,225.06611,689.369C225.06611,689.369,261.89722,691.38,286.46476,715.29547Z" transform="matrix(1 0 0 1 -38 -62)" fill="rgb(63,61,86)" stroke="none" stroke-width="1"/><path id="eBEUeSiLnIK32" d="M341.60134,715.29547C317.0338,739.211,314.03305,775.9747,314.03305,775.9747C314.03305,775.9747,350.86417,773.9637,375.43171,750.04819C399.99925,726.13268,403,689.369,403,689.369C403,689.369,366.16889,691.38,341.60134,715.29547Z" transform="matrix(1 0 0 1 -38 -62)" fill="rgb(63,61,86)" stroke="none" stroke-width="1"/><path id="eBEUeSiLnIK33" d="M946.958,427.97294C939.07365,414.65082,923.47508,414.02994,923.47508,414.02994C923.47508,414.02994,908.27517,412.08619,898.52452,432.37594C889.43614,451.28766,876.89301,469.5473,896.50518,473.9744L900.04771,462.94847L902.24157,474.79527C905.033966,474.996109,907.835262,475.043984,910.63289,474.93868C931.63594,474.26058,951.63816,475.13707,950.99412,467.6003C950.138,457.58123,954.54432,440.79148,946.958,427.97294Z" transform="matrix(1 0 0 1 -38 -62)" fill="rgb(47,46,65)" stroke="none" stroke-width="1"/><circle id="eBEUeSiLnIK34" r="20.3577" transform="matrix(1 0 0 1 887.046 383.501)" fill="rgb(160,97,106)" stroke="none" stroke-width="1"/><path id="eBEUeSiLnIK35" d="M916.71782,458.76461C916.71782,458.76461,925.9713,480.35607,913.63332,484.67437L925.97132,525.3897L946.94589,524.1559L952.49798,510.58412L951.26418,490.22646L949.41348,476.65468C949.41348,476.65468,936.4586,479.73918,937.6924,456.91391Z" transform="matrix(1 0 0 1 -38 -62)" fill="rgb(160,97,106)" stroke="none" stroke-width="1"/><path id="eBEUeSiLnIK36" d="M911.78262,484.05747C911.78262,484.05747,891.42496,482.20677,893.27562,497.01235C895.12628,511.81793,896.97702,514.90242,896.97702,514.90242L898.82772,537.11078L887.72353,543.89667L877.23628,543.89667C877.23628,543.89667,845.15753,551.29946,861.19691,559.31915C877.23629,567.33884,882.78837,553.15015,882.78837,553.15015C882.78837,553.15015,912.39952,553.15015,914.25022,548.21495C916.10092,543.27975,911.78262,484.05747,911.78262,484.05747Z" transform="matrix(1 0 0 1 -38 -62)" fill="rgb(160,97,106)" stroke="none" stroke-width="1"/><path id="eBEUeSiLnIK37" d="M951.26416,477.88848C951.26416,477.88848,970.38803,471.10259,971.62183,485.90817C972.85563,500.71375,972.85562,501.94754,972.85562,501.94754L976.55702,522.9221C976.55702,522.9221,983.95981,541.4291,983.95981,546.98117C983.95981,552.53324,989.5119,569.80643,989.5119,569.80643C989.5119,569.80643,996.91469,593.86549,988.895,593.24859C980.87531,592.63169,979.64151,567.33883,979.64151,567.33883L962.98524,534.02629L958.05005,513.66862Z" transform="matrix(1 0 0 1 -38 -62)" fill="rgb(160,97,106)" stroke="none" stroke-width="1"/><path id="eBEUeSiLnIK38" d="M914.86712,481.58987L909.93193,481.58987L909.31503,507.49963C909.31503,507.49963,901.29534,518.60381,911.16573,528.4742L913.63332,544.51357L958.66695,542.66287L961.75144,526.0066C961.75144,526.0066,967.92044,512.43482,959.28385,500.09684L951.26416,474.804L946.94587,474.804C946.94587,474.804,956.94745,511.68106,935.84168,512.43484C918.56851,513.05172,914.86712,481.58987,914.86712,481.58987Z" transform="matrix(1 0 0 1 -38 -62)" fill="rgb(208,205,225)" stroke="none" stroke-width="1"/><path id="eBEUeSiLnIK39" d="M916.10092,541.42907L912.39952,553.76707C912.39952,553.76707,835.28715,770.9155,858.72931,776.46759C882.17147,782.01968,914.86712,789.42247,917.95161,783.87038C921.0361,778.31829,937.07548,616.07385,937.07548,616.07385C937.07548,616.07385,934.60789,785.72108,942.62757,785.72108C950.64725,785.72108,1003.70057,786.95487,1006.78507,778.93519C1009.86957,770.91551,979.02461,556.23465,961.13454,551.29946L956.19935,540.19528Z" transform="matrix(1 0 0 1 -38 -62)" fill="rgb(47,46,65)" stroke="none" stroke-width="1"/><path id="eBEUeSiLnIK40" d="M960.51764,535.26008L911.78264,537.11078C911.78264,537.11078,909.55838,553.76705,911.78264,553.76705C912.39954,553.76705,962.98526,558.08535,962.36836,550.68256C961.75146,543.27977,960.51764,535.26008,960.51764,535.26008Z" transform="matrix(1 0 0 1 -38 -62)" fill="rgb(63,61,86)" stroke="none" stroke-width="1"/><circle id="eBEUeSiLnIK41" r="11.2786" transform="matrix(1 0 0 1 887.384 352.097)" fill="rgb(47,46,65)" stroke="none" stroke-width="1"/><path id="eBEUeSiLnIK42" d="M912.91833,411.12937C912.918917,405.360311,917.272743,400.521629,923.00973,399.91416C918.718158,399.457156,914.542069,401.489255,912.253354,405.148248C909.964639,408.807241,909.964639,413.451499,912.253354,417.110492C914.542069,420.769485,918.718158,422.801584,923.00973,422.34458C917.27273,421.737137,912.918889,416.898439,912.91833,411.12937Z" transform="matrix(1 0 0 1 -38 -62)" fill="rgb(47,46,65)" stroke="none" stroke-width="1"/><polygon id="eBEUeSiLnIK43" points="905.472,364.689 890.062,356.616 868.78,359.919 864.377,379.366 875.338,378.944 878.4,371.799 878.4,378.826 883.457,378.632 886.392,367.257 888.227,379.366 906.206,378.999 905.472,364.689" fill="rgb(47,46,65)" stroke="none" stroke-width="1"/><rect id="eBEUeSiLnIK44" width="5.86921" height="88.0382" rx="0" ry="0" transform="matrix(0.957139 -0.28963 0.28963 0.957139 813.13325 435.708951)" fill="rgb(63,61,86)" stroke="none" stroke-width="1"/><path id="eBEUeSiLnIK45" d="M873.43778,477.54775C877.274665,490.238717,870.098925,503.637562,857.408898,507.477554C844.71887,511.317546,831.318269,504.145087,827.47517,491.456C823.63451,478.76377,836.17231,437.297,836.17231,437.297C836.17231,437.297,869.59712,464.85553,873.43778,477.54775Z" transform="matrix(1 0 0 1 -38 -62)" fill="rgb(61,158,103)" stroke="none" stroke-width="1"/><path id="eBEUeSiLnIK46" d="M866.43519,484.75374C869.049808,493.394263,864.164848,502.518357,855.524325,505.132975C846.883802,507.747593,837.759708,502.862633,835.14509,494.22211C832.53048,485.58159,841.06587,457.35211,841.06587,457.35211C841.06587,457.35211,863.82058,476.11322,866.43519,484.75374Z" transform="matrix(1 0 0 1 -38 -62)" opacity="0.1" fill="rgb(0,0,0)" stroke="none" stroke-width="1"/></svg>
